packages/tokens/icons/caseStudy/size24Px.svg

<svg viewBox="0 0 24 24" fill="none" xmlns="http://www.w3.org/2000/svg" width="1em" height="1em"><path d="M15.5 2.98408V4.37261C15.5 5.47718 16.3954 6.37261 17.5 6.37261H19M19.5 16.0541V7.22006C19.5 6.6784 19.2803 6.15991 18.8911 5.78315L16.0816 3.06309C15.7086 2.70193 15.2097 2.5 14.6905 2.5L6.5 2.5C5.39543 2.5 4.5 3.39543 4.5 4.5L4.5 19.5C4.5 20.6046 5.39543 21.5 6.5 21.5L17 21.5" stroke="currentColor" stroke-linecap="round"/><path d="M7 6.5L13.5 6.5M7 9.5H13M7 12.5H8.5M7 15.5H8.5" stroke="currentColor" stroke-linecap="round"/><circle cx="13" cy="14" r="4.5" stroke="currentColor"/><path d="M20.5 20.5L17 17" stroke="currentColor" stroke-linecap="round" stroke-linejoin="round"/><path d="M15 18V17C15 16.1716 14.3284 15.5 13.5 15.5L12.5 15.5C11.6716 15.5 11 16.1716 11 17V18" stroke="currentColor"/><path d="M14 13C14 13.5523 13.5523 14 13 14C12.4477 14 12 13.5523 12 13C12 12.4477 12.4477 12 13 12C13.5523 12 14 12.4477 14 13Z" stroke="currentColor"/></svg>

<svg xmlns="http://www.w3.org/2000/svg" fill="none" viewBox="0 0 24 24" width="1em" height="1em"><path stroke="currentColor" stroke-linecap="round" d="M15.5 2.984v1.389a2 2 0 0 0 2 2H19m.5 9.681V7.22a2 2 0 0 0-.609-1.437l-2.81-2.72a2 2 0 0 0-1.39-.563H6.5a2 2 0 0 0-2 2v15a2 2 0 0 0 2 2H17M7 6.5h6.5M7 9.5h6m-6 3h1.5m-1.5 3h1.5"/><circle cx="13" cy="14" r="4.5" stroke="currentColor"/><path stroke="currentColor" stroke-linecap="round" stroke-linejoin="round" d="M20.5 20.5 17 17"/><path stroke="currentColor" d="M15 18v-1a1.5 1.5 0 0 0-1.5-1.5h-1A1.5 1.5 0 0 0 11 17v1m3-5a1 1 0 1 1-2 0 1 1 0 0 1 2 0Z"/></svg>
